packages/assets/static/images/icons/bold/park--bold.svg

<svg width="24" height="24" viewBox="0 0 24 24" xmlns="http://www.w3.org/2000/svg">
<path d="M22.25 17.6251H19.625V16.1251H21.5C21.6709 16.125 21.8396 16.086 21.9933 16.0111C22.1469 15.9361 22.2814 15.8271 22.3866 15.6923C22.4918 15.5576 22.5649 15.4006 22.6004 15.2334C22.6358 15.0662 22.6327 14.8931 22.5912 14.7272L19.5912 2.72724C19.5303 2.48398 19.3898 2.26807 19.1921 2.1138C18.9944 1.95952 18.7508 1.87573 18.5 1.87573C18.2492 1.87573 18.0056 1.95952 17.8079 2.1138C17.6102 2.26807 17.4697 2.48398 17.4088 2.72724L14.4088 14.7272C14.3673 14.8931 14.3642 15.0662 14.3996 15.2334C14.4351 15.4006 14.5082 15.5576 14.6134 15.6923C14.7186 15.8271 14.8531 15.9361 15.0067 16.0111C15.1604 16.086 15.3291 16.125 15.5 16.1251H17.375V17.6251H11.375V16.5001C11.6734 16.5001 11.9595 16.3815 12.1705 16.1705C12.3815 15.9596 12.5 15.6734 12.5 15.3751C12.5 15.0767 12.3815 14.7905 12.1705 14.5796C11.9595 14.3686 11.6734 14.2501 11.375 14.2501V13.1251C11.6734 13.1251 11.9595 13.0065 12.1705 12.7955C12.3815 12.5846 12.5 12.2984 12.5 12.0001C12.5 11.7017 12.3815 11.4155 12.1705 11.2046C11.9595 10.9936 11.6734 10.8751 11.375 10.8751H3.5C3.20163 10.8751 2.91548 10.9936 2.7045 11.2046C2.49353 11.4155 2.375 11.7017 2.375 12.0001C2.375 12.2984 2.49353 12.5846 2.7045 12.7955C2.91548 13.0065 3.20163 13.1251 3.5 13.1251V14.2501C3.20163 14.2501 2.91548 14.3686 2.7045 14.5796C2.49353 14.7905 2.375 15.0767 2.375 15.3751C2.375 15.6734 2.49353 15.9596 2.7045 16.1705C2.91548 16.3815 3.20163 16.5001 3.5 16.5001V17.6251H2.75C2.45163 17.6251 2.16548 17.7436 1.9545 17.9546C1.74353 18.1655 1.625 18.4517 1.625 18.7501C1.625 19.0484 1.74353 19.3346 1.9545 19.5455C2.16548 19.7565 2.45163 19.8751 2.75 19.8751H22.25C22.5484 19.8751 22.8345 19.7565 23.0455 19.5455C23.2565 19.3346 23.375 19.0484 23.375 18.7501C23.375 18.4517 23.2565 18.1655 23.0455 17.9546C22.8345 17.7436 22.5484 17.6251 22.25 17.6251ZM18.5 7.6388L20.0591 13.8751H16.9409L18.5 7.6388ZM5.75 13.1251H9.125V14.2501H5.75V13.1251ZM5.75 16.5001H9.125V17.6251H5.75V16.5001ZM11.375 9.37505C11.9683 9.37505 12.5484 9.1991 13.0417 8.86946C13.5351 8.53982 13.9196 8.07128 14.1466 7.5231C14.3737 6.97492 14.4331 6.37172 14.3174 5.78978C14.2016 5.20784 13.9159 4.67329 13.4963 4.25373C13.0768 3.83417 12.5422 3.54845 11.9603 3.4327C11.3783 3.31694 10.7751 3.37635 10.2269 3.60341C9.67877 3.83048 9.21024 4.21499 8.88059 4.70834C8.55095 5.20169 8.375 5.78171 8.375 6.37505C8.375 7.1707 8.69107 7.93376 9.25368 8.49637C9.81629 9.05898 10.5794 9.37505 11.375 9.37505ZM11.375 5.62505C11.5233 5.62505 11.6683 5.66904 11.7917 5.75145C11.915 5.83386 12.0111 5.95099 12.0679 6.08804C12.1247 6.22508 12.1395 6.37588 12.1106 6.52137C12.0816 6.66686 12.0102 6.80049 11.9053 6.90538C11.8004 7.01027 11.6668 7.0817 11.5213 7.11064C11.3758 7.13958 11.225 7.12473 11.088 7.06796C10.9509 7.0112 10.8338 6.91507 10.7514 6.79173C10.669 6.66839 10.625 6.52339 10.625 6.37505C10.625 6.17614 10.704 5.98537 10.8447 5.84472C10.9853 5.70407 11.1761 5.62505 11.375 5.62505Z"/>
</svg>

<svg viewBox="0 0 24 24" xmlns="http://www.w3.org/2000/svg" aria-hidden="true" fill="currentColor"><path d="M22.25 17.625h-2.625v-1.5H21.5a1.13 1.13 0 0 0 1.1-.892c.036-.167.033-.34-.009-.506l-3-12a1.125 1.125 0 0 0-2.182 0l-3 12a1.125 1.125 0 0 0 1.091 1.398h1.875v1.5h-6V16.5a1.125 1.125 0 0 0 0-2.25v-1.125a1.125 1.125 0 0 0 0-2.25H3.5a1.125 1.125 0 1 0 0 2.25v1.125a1.125 1.125 0 1 0 0 2.25v1.125h-.75a1.125 1.125 0 1 0 0 2.25h19.5a1.125 1.125 0 0 0 0-2.25M18.5 7.64l1.56 6.236h-3.12zM5.75 13.125h3.375v1.125H5.75zm0 3.375h3.375v1.125H5.75zm5.625-7.125a3 3 0 1 0 0-6 3 3 0 0 0 0 6m0-3.75a.75.75 0 1 1 0 1.5.75.75 0 0 1 0-1.5"/></svg>
